assets/images/logo_shop.svg

<svg fill="none" height="18" viewBox="0 0 18 18" width="18" xmlns="http://www.w3.org/2000/svg"><path d="m17.1081 4.84867h-3.4623v-.32432c0-2.05943-2.0978-3.729672-4.68435-3.729672-2.58657 0-4.68433 1.670242-4.68433 3.729672v.32432h-3.462332c-.450612 0-.81466593.28986-.81466593.64864v10.86469c0 .3588.36405393.6487.81466593.6487h16.293312c.4506 0 .8147-.2899.8147-.6487v-10.86469c0-.35878-.3641-.64864-.8147-.64864zm-10.99798-.32432c0-1.25471 1.27546-2.27023 2.85133-2.27023 1.57585 0 2.85135 1.01552 2.85135 2.27023v.32432h-5.70268zm-4.277 11.02685v-9.24309h2.444v1.78376c0 .08918.09165.16215.20367.16215h1.42566c.11202 0 .20367-.07297.20367-.16215v-1.78376h5.70268v1.78376c0 .08918.0916.16215.2036.16215h1.4257c.112 0 .2037-.07297.2037-.16215v-1.78376h2.444v9.24309z" fill="#000"/><path d="m17.1081 4.84867h-3.4623v-.32432c0-2.05943-2.0978-3.729672-4.68435-3.729672-2.58657 0-4.68433 1.670242-4.68433 3.729672v.32432h-3.462332c-.450612 0-.81466593.28986-.81466593.64864v10.86469c0 .3588.36405393.6487.81466593.6487h16.293312c.4506 0 .8147-.2899.8147-.6487v-10.86469c0-.35878-.3641-.64864-.8147-.64864zm-10.99798-.32432c0-1.25471 1.27546-2.27023 2.85133-2.27023 1.57585 0 2.85135 1.01552 2.85135 2.27023v.32432h-5.70268zm-4.277 11.02685v-9.24309h2.444v1.78376c0 .08918.09165.16215.20367.16215h1.42566c.11202 0 .20367-.07297.20367-.16215v-1.78376h5.70268v1.78376c0 .08918.0916.16215.2036.16215h1.4257c.112 0 .2037-.07297.2037-.16215v-1.78376h2.444v9.24309z" stroke="#000"/></svg>

<svg width="18" height="18" viewBox="0 0 18 18" fill="none" xmlns="http://www.w3.org/2000/svg">
<path d="M17.1081 4.84867H13.6458V4.52435C13.6458 2.46492 11.548 0.794678 8.96145 0.794678C6.37488 0.794678 4.27712 2.46492 4.27712 4.52435V4.84867H0.814788C0.364176 4.84867 0.00012207 5.13853 0.00012207 5.49731V16.362C0.00012207 16.7208 0.364176 17.0107 0.814788 17.0107H17.1081C17.5587 17.0107 17.9228 16.7208 17.9228 16.362V5.49731C17.9228 5.13853 17.5587 4.84867 17.1081 4.84867ZM6.11012 4.52435C6.11012 3.26964 7.38558 2.25412 8.96145 2.25412C10.5373 2.25412 11.8128 3.26964 11.8128 4.52435V4.84867H6.11012V4.52435ZM1.83312 15.5512V6.30811H4.27712V8.09187C4.27712 8.18105 4.36877 8.25402 4.48079 8.25402H5.90645C6.01847 8.25402 6.11012 8.18105 6.11012 8.09187V6.30811H11.8128V8.09187C11.8128 8.18105 11.9044 8.25402 12.0164 8.25402H13.4421C13.5541 8.25402 13.6458 8.18105 13.6458 8.09187V6.30811H16.0898V15.5512H1.83312Z" fill="black"/>
<path d="M17.1081 4.84867H13.6458V4.52435C13.6458 2.46492 11.548 0.794678 8.96145 0.794678C6.37488 0.794678 4.27712 2.46492 4.27712 4.52435V4.84867H0.814788C0.364176 4.84867 0.00012207 5.13853 0.00012207 5.49731V16.362C0.00012207 16.7208 0.364176 17.0107 0.814788 17.0107H17.1081C17.5587 17.0107 17.9228 16.7208 17.9228 16.362V5.49731C17.9228 5.13853 17.5587 4.84867 17.1081 4.84867ZM6.11012 4.52435C6.11012 3.26964 7.38558 2.25412 8.96145 2.25412C10.5373 2.25412 11.8128 3.26964 11.8128 4.52435V4.84867H6.11012V4.52435ZM1.83312 15.5512V6.30811H4.27712V8.09187C4.27712 8.18105 4.36877 8.25402 4.48079 8.25402H5.90645C6.01847 8.25402 6.11012 8.18105 6.11012 8.09187V6.30811H11.8128V8.09187C11.8128 8.18105 11.9044 8.25402 12.0164 8.25402H13.4421C13.5541 8.25402 13.6458 8.18105 13.6458 8.09187V6.30811H16.0898V15.5512H1.83312Z" stroke="black"/>
</svg>
